assets/icons/home_filled.svg

<svg width="25" height="24" viewBox="0 0 25 24" fill="none" xmlns="http://www.w3.org/2000/svg">
<g clip-path="url(#clip0_553_1581)">
<path d="M10.4065 2.04931C11.2322 1.54997 12.0065 1.25049 12.8802 1.25049C13.7539 1.25049 14.5281 1.54997 15.3539 2.04931C16.1537 2.53292 17.0677 3.24639 18.2152 4.14207L19.3986 5.06568C20.7745 6.13894 21.6639 6.83271 22.1476 7.82525C22.6312 8.8174 22.6308 9.94709 22.6302 11.6961V14.0282C22.6302 15.8728 22.6302 17.3334 22.4771 18.4763C22.3196 19.6521 21.9878 20.6036 21.2399 21.3541C20.4916 22.1051 19.5425 22.4385 18.3696 22.5968C17.2302 22.7505 15.7744 22.7505 13.9368 22.7505H11.8236C9.98599 22.7505 8.53022 22.7505 7.39084 22.5968C6.21793 22.4385 5.26877 22.1051 4.52051 21.3541C3.77262 20.6036 3.44082 19.6521 3.2833 18.4763C3.13018 17.3334 3.13019 15.8729 3.13021 14.0283L3.13017 11.6961C3.1296 9.94709 3.12923 8.81739 3.61275 7.82525C4.09646 6.83271 4.98589 6.13894 6.36183 5.06568L7.54518 4.14206C8.69265 3.24639 9.6067 2.53292 10.4065 2.04931Z" fill="white" stroke="url(#paint0_linear_553_1581)"/>
</g>
<defs>
<linearGradient id="paint0_linear_553_1581" x1="4.88514" y1="3.40049" x2="21.4431" y2="19.1984" gradientUnits="userSpaceOnUse">
<stop stop-color="white" stop-opacity="0.3"/>
<stop offset="0.370192" stop-color="white" stop-opacity="0.15"/>
<stop offset="0.721154" stop-color="white" stop-opacity="0.1"/>
<stop offset="1" stop-color="white" stop-opacity="0.3"/>
</linearGradient>
<clipPath id="clip0_553_1581">
<rect width="24" height="24" fill="white" transform="translate(0.880127 0.000488281)"/>
</clipPath>
</defs>
</svg>

<svg xmlns="http://www.w3.org/2000/svg" width="25" height="24" fill="none" viewBox="0 0 25 24"><g clip-path="url(#a)"><path fill="#fff" stroke="url(#b)" d="M10.407 2.05c.825-.5 1.6-.8 2.473-.8.874 0 1.648.3 2.474.8.8.483 1.714 1.196 2.861 2.092l1.184.924c1.375 1.073 2.265 1.767 2.749 2.76.483.991.483 2.121.482 3.87v2.332c0 1.845 0 3.305-.153 4.448-.157 1.176-.49 2.128-1.237 2.878-.748.751-1.697 1.085-2.87 1.243-1.14.153-2.596.153-4.433.153h-2.113c-1.838 0-3.294 0-4.433-.153-1.173-.159-2.122-.492-2.87-1.243-.748-.75-1.08-1.702-1.238-2.878-.153-1.143-.153-2.603-.153-4.448v-2.332c0-1.749 0-2.879.483-3.87.483-.993 1.373-1.687 2.749-2.76l1.183-.924c1.148-.896 2.062-1.61 2.861-2.093Z"/></g><defs><linearGradient id="b" x1="4.885" x2="21.443" y1="3.4" y2="19.198" gradientUnits="userSpaceOnUse"><stop stop-color="#fff" stop-opacity=".3"/><stop offset=".37" stop-color="#fff" stop-opacity=".15"/><stop offset=".721" stop-color="#fff" stop-opacity=".1"/><stop offset="1" stop-color="#fff" stop-opacity=".3"/></linearGradient><clipPath id="a"><path fill="#fff" d="M.88 0h24v24h-24z"/></clipPath></defs></svg>
